assets/img/b4.svg

<svg width="129" height="60" viewBox="0 0 129 60" fill="none" xmlns="http://www.w3.org/2000/svg">
<path d="M54.4303 35.2585L41.7268 51.0754V12.7105L54.4303 0.060791V35.2585Z" fill="#D7DF23"/>
<path d="M50.7491 0.0720215L38.0473 12.7209H41.7268L54.4269 0.0720215H50.7491Z" fill="#A6CE39"/>
<path d="M14.9059 43.0637V44.0768C14.9059 45.1937 14.6265 46.2068 14.0721 47.1094C13.5177 48.0222 12.6984 48.6685 11.6168 49.05C11.0906 49.2214 10.4917 49.428 9.81938 49.6637C9.14789 49.9028 8.49691 50.124 7.869 50.3451C7.23938 50.5697 6.69177 50.7625 6.22446 50.9374C5.75716 51.1191 5.46328 51.2194 5.34966 51.2511C5.23091 51.3077 5.08653 51.3865 4.90883 51.4902C4.73285 51.594 4.56028 51.7474 4.38258 51.954C4.2066 52.1571 4.05538 52.3894 3.92211 52.6568C3.79055 52.9174 3.72648 53.2277 3.72648 53.5774V54.3694V60H0V33.036C0.0281921 31.5377 0.636457 30.2854 1.81881 29.28C3.00288 28.2634 4.87979 27.7637 7.4521 27.7637C8.76773 27.7637 9.89114 27.9025 10.8283 28.1777C11.7638 28.4562 12.5369 28.8377 13.1537 29.3194C13.7688 29.8114 14.2114 30.3685 14.4907 31.0174C14.7667 31.6594 14.9068 32.3477 14.9068 33.0788V34.1382V43.0637H14.9059ZM11.2221 33.9171C11.194 33.5322 11.1119 33.1714 10.9804 32.8148C10.8471 32.4617 10.6463 32.1548 10.367 31.8908C10.091 31.6302 9.70917 31.4237 9.22905 31.2737C8.74381 31.1271 8.15348 31.056 7.45124 31.056C6.72252 31.056 6.11768 31.1417 5.6367 31.2985C5.15146 31.4588 4.76873 31.6731 4.49535 31.9371C4.21599 32.1977 4.01694 32.4865 3.90332 32.7968C3.78457 33.1002 3.72733 33.414 3.72733 33.7422V43.0637V43.2848V48.7422C3.78457 48.4174 3.92297 48.1782 4.14338 48.036C4.36379 47.8894 4.58762 47.7865 4.82084 47.7257C5.28815 47.5834 5.77168 47.412 6.27145 47.226C6.76695 47.0297 7.2334 46.866 7.67251 46.7125C8.19705 46.5411 8.69426 46.3697 9.16242 46.188C9.53917 46.0414 9.89114 45.8348 10.2166 45.5742C10.478 45.3351 10.7121 45.0394 10.9155 44.6682C11.1196 44.304 11.223 43.8445 11.223 43.284V43.0628V33.9171H11.2221Z" fill="#523929"/>
<path d="M25.9042 27.7637C28.4748 27.7637 30.3628 28.2634 31.5606 29.28C32.7583 30.2862 33.3563 31.5591 33.3563 33.0788V35.1942V44.8251V46.1022C33.3563 46.6268 33.2623 47.208 33.0718 47.8397C32.8813 48.4671 32.5097 49.0491 31.9553 49.5737C31.4008 50.1017 30.6396 50.544 29.6743 50.8937C28.7072 51.2502 27.4522 51.4251 25.9042 51.4251C24.3579 51.4251 23.0987 51.2502 22.1342 50.8937C21.1705 50.544 20.4102 50.1017 19.8566 49.5737C19.2979 49.0491 18.9254 48.468 18.7383 47.8397C18.5444 47.208 18.4538 46.6268 18.4538 46.1022V44.0331C18.4538 42.924 18.7383 41.9108 19.3073 40.9971C19.8797 40.0911 20.6887 39.4414 21.7395 39.0634C22.2657 38.8851 22.8629 38.682 23.5386 38.4462C24.211 38.2105 24.8611 37.986 25.4873 37.7648C26.1169 37.5471 26.6645 37.3474 27.1319 37.1691C27.6009 36.9942 27.8913 36.8905 28.0101 36.8622C28.1254 36.8057 28.2817 36.7234 28.4688 36.6162C28.6611 36.516 28.8422 36.3625 29.0182 36.1594C29.1941 35.9528 29.3471 35.7171 29.482 35.4531C29.6102 35.1925 29.676 34.8857 29.676 34.5257V33.6908C29.676 33.402 29.6153 33.0985 29.4983 32.796C29.3829 32.4857 29.1762 32.1968 28.8866 31.9362C28.5919 31.6722 28.2108 31.458 27.7256 31.2977C27.2421 31.1408 26.6364 31.0551 25.9051 31.0551C24.4459 31.0551 23.4592 31.3585 22.9466 31.9577C22.4366 32.5602 22.1786 33.2811 22.1786 34.1374H18.4547V33.078C18.4547 32.3468 18.5914 31.6585 18.8707 31.0165C19.1484 30.3677 19.5926 29.8105 20.206 29.3185C20.8194 28.8368 21.5925 28.4554 22.5289 28.1768C23.4652 27.9025 24.5886 27.7637 25.9042 27.7637ZM29.6743 39.414C29.6136 39.7062 29.4667 39.9274 29.2369 40.074C29.0002 40.2205 28.7815 40.3234 28.5773 40.3808C28.1399 40.5274 27.6649 40.698 27.1583 40.8874C26.6406 41.0768 26.1665 41.2474 25.7291 41.394C25.1994 41.5688 24.7048 41.7471 24.2358 41.922C23.8855 42.072 23.5515 42.2751 23.2311 42.5357C22.9663 42.7748 22.7245 43.0705 22.5024 43.4348C22.2888 43.806 22.1769 44.2697 22.1769 44.826C22.1769 45.9428 22.4383 46.7665 22.9663 47.316C23.4908 47.8542 24.4741 48.126 25.9025 48.126C27.3642 48.126 28.3595 47.8405 28.884 47.2731C29.4103 46.692 29.6734 45.8785 29.6734 44.826V39.414H29.6743Z" fill="#523929"/>
<path d="M83.9397 51.4244C81.3691 51.4244 79.4845 50.9178 78.2834 49.9047C77.089 48.8881 76.4825 47.6221 76.4825 46.1015V43.9861V34.3595V33.0789C76.4825 32.5475 76.5799 31.9767 76.7721 31.3449C76.9609 30.7098 77.3342 30.1355 77.8887 29.6075C78.4465 29.0795 79.2043 28.6407 80.1714 28.2875C81.1316 27.9309 82.39 27.7629 83.9397 27.7629C85.4894 27.7629 86.7452 27.9309 87.708 28.2875C88.6717 28.6407 89.432 29.0795 89.9873 29.6075C90.5452 30.1355 90.9151 30.7098 91.1039 31.3449C91.2961 31.9767 91.3884 32.5467 91.3884 33.0789V35.1515C91.3884 36.2607 91.1039 37.2738 90.5349 38.1798C89.966 39.0927 89.1552 39.7355 88.0993 40.1169C87.5731 40.2952 86.9793 40.4949 86.3036 40.7341C85.6321 40.9655 84.9811 41.1978 84.3549 41.4189C83.7287 41.6332 83.1777 41.8329 82.7052 42.0112C82.2396 42.1827 81.9517 42.2855 81.8381 42.3181C81.7177 42.3789 81.5647 42.4569 81.3725 42.5607C81.1803 42.6644 81.0026 42.8178 80.8283 43.0244C80.6541 43.2241 80.4977 43.4564 80.3661 43.7272C80.2346 43.9878 80.1705 44.2947 80.1705 44.6478V45.4792C80.1705 45.7792 80.2312 46.0818 80.3448 46.3887C80.4584 46.6921 80.6686 46.9809 80.9599 47.2449C81.2478 47.5089 81.6357 47.7155 82.1149 47.8835C82.6019 48.0481 83.2101 48.1261 83.9389 48.1261C85.3963 48.1261 86.3881 47.8192 86.893 47.2269C87.4048 46.6201 87.6611 45.8924 87.6611 45.0472H91.3875V46.1032C91.3875 46.8344 91.2491 47.5269 90.9749 48.1689C90.6973 48.8144 90.2496 49.3818 89.6379 49.8669C89.0228 50.3452 88.248 50.7267 87.3091 51.0087C86.3787 51.2821 85.2553 51.4244 83.9397 51.4244ZM80.1714 39.7672C80.232 39.4749 80.3738 39.2504 80.6054 39.1038C80.8403 38.9572 81.0607 38.8544 81.2632 38.8004C81.704 38.6469 82.1807 38.4824 82.689 38.2938C83.2007 38.1044 83.6774 37.9338 84.1148 37.7907C84.6411 37.6055 85.1392 37.4341 85.6047 37.2558C85.9567 37.1127 86.2908 36.9095 86.6111 36.6421C86.8742 36.4064 87.116 36.1038 87.3364 35.7395C87.5568 35.3718 87.6636 34.9124 87.6636 34.3587C87.6636 33.2384 87.4005 32.4147 86.8742 31.8687C86.348 31.3261 85.3741 31.0552 83.9414 31.0552C82.4797 31.0552 81.4879 31.3441 80.9625 31.9115C80.4362 32.4858 80.1731 33.2958 80.1731 34.3587V39.7672H80.1714Z" fill="#A6CE39"/>
<path d="M38.0439 12.7192H41.7268V51.0747H38.0439V12.7192Z" fill="#523929"/>
<path d="M72.1469 51.0755H68.4255V34.1778V33.7818C68.4255 33.5247 68.3879 33.2358 68.3102 32.9255C68.2393 32.6187 68.0795 32.3264 67.8301 32.0478C67.5815 31.7692 67.2167 31.5378 66.7349 31.3449C66.2513 31.1555 65.6012 31.0561 64.7888 31.0561C63.9644 31.0561 63.304 31.1564 62.7905 31.3449C62.2797 31.5378 61.8841 31.7589 61.6039 32.0264C61.3314 32.2869 61.1443 32.5724 61.0606 32.8827C60.9717 33.1895 60.9239 33.4638 60.9239 33.6927V34.1778V51.0755H57.2008V34.1778V33.7818C57.2008 33.5247 57.1641 33.2358 57.0889 32.9255C57.0206 32.6187 56.854 32.3264 56.6114 32.0478C56.3585 31.7692 55.9911 31.5378 55.511 31.3449C55.0309 31.1555 54.3825 31.0561 53.5623 31.0561C52.7405 31.0561 52.0793 31.1564 51.565 31.3449C51.0558 31.5378 50.662 31.7589 50.3809 32.0264C50.1075 32.2869 49.9239 32.5724 49.8333 32.8827C49.7445 33.1895 49.7052 33.4638 49.7052 33.6927V34.1778V51.0755H46.0248V33.8778V33.0789C46.0248 32.7292 46.0786 32.2587 46.1965 31.6732C46.3187 31.0887 46.6211 30.5032 47.1158 29.9144C47.6164 29.3255 48.3639 28.8232 49.354 28.3947C50.3459 27.9704 51.723 27.7629 53.4761 27.7629C54.8746 27.7629 56.0245 27.9018 56.9146 28.1769C57.8048 28.4555 58.5276 28.8009 59.0846 29.2115C59.6416 28.8009 60.3635 28.4555 61.2536 28.1769C62.1455 27.9027 63.2929 27.7629 64.6974 27.7629C66.4529 27.7629 67.8215 27.9695 68.8168 28.3947C69.8121 28.8224 70.5536 29.3255 71.0525 29.9144C71.5506 30.5032 71.8564 31.0989 71.9735 31.6947C72.0905 32.2972 72.1477 32.7575 72.1477 33.0789V33.5247V51.0755H72.1469Z" fill="#523929"/>
<path d="M106.122 34.1382V33.6925C106.122 33.4037 106.061 33.1002 105.947 32.7977C105.83 32.4874 105.627 32.1985 105.332 31.938C105.038 31.674 104.653 31.4597 104.173 31.2994C103.69 31.1425 103.078 31.0568 102.353 31.0568C100.887 31.0568 99.9032 31.3602 99.3906 31.9594C98.8789 32.562 98.6295 33.2828 98.6295 34.1391V44.826C98.6295 45.9428 98.8892 46.7665 99.412 47.316C99.9383 47.8542 100.92 48.126 102.353 48.126C103.813 48.126 104.806 47.8405 105.331 47.2731C105.858 46.692 106.121 45.8785 106.121 44.826H109.8V46.1031C109.8 46.6277 109.708 47.2088 109.519 47.8405C109.33 48.468 108.957 49.05 108.399 49.5745C107.845 50.1025 107.087 50.5448 106.12 50.8945C105.156 51.2511 103.898 51.426 102.352 51.426C100.801 51.426 99.5461 51.2511 98.5756 50.8945C97.6188 50.5448 96.8585 50.1025 96.3006 49.5745C95.7496 49.05 95.3763 48.4688 95.1806 47.8405C94.9918 47.2088 94.8961 46.6277 94.8961 46.1031V44.034V34.1382V33.0788C94.8961 32.3477 95.038 31.6594 95.3156 31.0174C95.5933 30.3685 96.0341 29.8114 96.656 29.3194C97.2677 28.8377 98.0425 28.4562 98.9737 28.1777C99.9092 27.9034 101.033 27.7637 102.352 27.7637C104.95 27.7637 106.842 28.2634 108.029 29.28C109.21 30.2862 109.799 31.5591 109.799 33.0788V34.1382H106.122Z" fill="#A6CE39"/>
<path d="M129 45.3961V46.1024C129 46.4555 128.939 46.9227 128.826 47.5081C128.709 48.0927 128.406 48.6781 127.908 49.2661C127.41 49.8549 126.663 50.3615 125.668 50.7858C124.676 51.2032 123.304 51.4244 121.551 51.4244C119.798 51.4244 118.426 51.2032 117.434 50.7858C116.435 50.3615 115.685 49.8549 115.194 49.2661C114.696 48.6772 114.391 48.0858 114.273 47.4824C114.156 46.8798 114.096 46.4195 114.096 46.1015V45.6198V33.0789C114.096 32.7575 114.156 32.2972 114.273 31.6947C114.391 31.0989 114.696 30.5032 115.194 29.9144C115.685 29.3255 116.435 28.8232 117.434 28.3947C118.426 27.9704 119.798 27.7629 121.551 27.7629C123.304 27.7629 124.676 27.9695 125.668 28.3947C126.663 28.8224 127.41 29.3255 127.908 29.9144C128.406 30.5032 128.708 31.0878 128.826 31.6732C128.939 32.2587 129 32.7292 129 33.0789V45.3961ZM125.278 44.9538V34.2241V33.7424C125.278 33.4784 125.235 33.1895 125.146 32.8827C125.057 32.5724 124.873 32.2869 124.599 32.0264C124.321 31.7589 123.934 31.5378 123.436 31.3449C122.938 31.1555 122.27 31.0561 121.416 31.0561C120.63 31.0561 119.997 31.1564 119.518 31.3449C119.031 31.5378 118.661 31.7692 118.398 32.0478C118.132 32.3264 117.964 32.6221 117.89 32.9435C117.815 33.2718 117.783 33.5461 117.783 33.7818V34.2241V44.9538V45.3961C117.783 45.6318 117.815 45.9095 117.89 46.2275C117.964 46.5558 118.132 46.8592 118.398 47.1335C118.661 47.4121 119.031 47.6504 119.518 47.8398C119.998 48.0292 120.631 48.1252 121.416 48.1252C122.27 48.1252 122.938 48.0292 123.436 47.8398C123.934 47.6504 124.321 47.4155 124.599 47.1549C124.872 46.8944 125.057 46.6055 125.146 46.2987C125.235 45.9918 125.278 45.7029 125.278 45.4424V44.9538Z" fill="#A6CE39"/>
</svg>

<svg xmlns="http://www.w3.org/2000/svg" width="129" height="60" fill="none" xmlns:v="https://vecta.io/nano"><path d="M54.43 35.259L41.727 51.075V12.711L54.43.061v35.198z" fill="#d7df23"/><path d="M50.749.072L38.047 12.721h3.679L54.427.072h-3.678z" fill="#a6ce39"/><path d="M14.906 43.064v1.013c0 1.117-.279 2.13-.834 3.033-.554.913-1.374 1.559-2.455 1.941l-1.797.614-1.95.681-1.645.592-.875.314a6.23 6.23 0 0 0-.441.239c-.176.104-.349.257-.526.464a3.36 3.36 0 0 0-.46.703c-.132.261-.196.571-.196.921v.792V60H0V33.036c.028-1.498.636-2.751 1.819-3.756 1.184-1.017 3.061-1.516 5.633-1.516 1.316 0 2.439.139 3.376.414s1.709.66 2.325 1.142c.615.492 1.058 1.049 1.337 1.698a5.17 5.17 0 0 1 .416 2.061v1.059 8.926h-.001zm-3.684-9.147c-.028-.385-.11-.746-.242-1.102a2.43 2.43 0 0 0-.613-.924c-.276-.261-.658-.467-1.138-.617s-1.076-.218-1.778-.218c-.729 0-1.334.086-1.815.242s-.868.375-1.141.639a2.24 2.24 0 0 0-.592.86c-.119.303-.176.617-.176.945v9.322.221 5.457c.057-.325.196-.564.416-.706s.444-.25.677-.31l1.451-.5 1.401-.514 1.49-.524a4 4 0 0 0 1.054-.614c.261-.239.495-.535.699-.906.204-.364.308-.824.308-1.384v-.221-9.146h-.001zm14.682-6.153c2.571 0 4.459.5 5.656 1.516 1.198 1.006 1.796 2.279 1.796 3.799v2.115 9.631 1.277c0 .525-.094 1.106-.284 1.737s-.562 1.209-1.117 1.734-1.316.97-2.281 1.32c-.967.356-2.222.531-3.77.531s-2.805-.175-3.77-.531c-.964-.35-1.724-.792-2.278-1.32-.559-.525-.931-1.106-1.118-1.734-.194-.632-.284-1.213-.284-1.737v-2.069a5.63 5.63 0 0 1 .854-3.036c.572-.906 1.381-1.556 2.432-1.934l1.799-.617 1.949-.681 1.645-.596.878-.307.459-.246c.192-.1.373-.254.549-.457a3.63 3.63 0 0 0 .464-.706c.128-.261.194-.567.194-.927v-.835c0-.289-.061-.592-.178-.895a2.2 2.2 0 0 0-.612-.86c-.295-.264-.676-.478-1.161-.639s-1.089-.243-1.82-.243c-1.459 0-2.446.303-2.959.903s-.768 1.323-.768 2.18h-3.724v-1.059a5.12 5.12 0 0 1 .416-2.062c.278-.649.722-1.206 1.335-1.698.613-.482 1.387-.863 2.323-1.142s2.06-.413 3.375-.413zm3.77 11.65c-.061.292-.208.513-.437.66a2.63 2.63 0 0 1-.66.307l-1.419.507-1.429.507-1.493.528a4.22 4.22 0 0 0-1.005.614 4 4 0 0 0-.729.899c-.214.371-.326.835-.326 1.391 0 1.117.261 1.941.789 2.49.524.538 1.508.81 2.936.81 1.462 0 2.457-.285 2.982-.853.526-.581.789-1.395.789-2.447v-5.412h.001z" fill="#523929"/><path d="M83.94 51.424c-2.571 0-4.455-.507-5.656-1.52-1.194-1.017-1.801-2.283-1.801-3.803v-2.115-9.627-1.281c0-.531.097-1.102.29-1.734s.562-1.209 1.117-1.737 1.316-.967 2.283-1.32c.96-.357 2.219-.525 3.768-.525s2.805.168 3.768.525 1.724.792 2.279 1.32.928 1.102 1.117 1.737.285 1.202.285 1.734v2.073c0 1.109-.285 2.122-.854 3.028-.569.913-1.38 1.556-2.436 1.937l-1.796.617-1.949.685-1.65.592-.867.307-.466.243c-.192.104-.37.257-.544.464a3.17 3.17 0 0 0-.462.703c-.132.261-.196.567-.196.921v.831c0 .3.061.603.174.91s.324.592.615.856.676.471 1.155.639c.487.165 1.095.243 1.824.243 1.457 0 2.449-.307 2.954-.899.512-.607.768-1.334.768-2.18h3.726v1.056c0 .731-.138 1.424-.413 2.066s-.725 1.213-1.337 1.698c-.615.478-1.39.86-2.329 1.142-.93.273-2.054.416-3.369.416zm-3.768-11.657c.061-.292.202-.517.434-.663s.455-.249.658-.303l1.426-.507 1.426-.503 1.49-.535c.352-.143.686-.346 1.006-.614.263-.236.505-.538.725-.903s.327-.827.327-1.381c0-1.12-.263-1.944-.789-2.49s-1.5-.814-2.933-.814c-1.462 0-2.454.289-2.979.856-.526.574-.789 1.384-.789 2.447v5.409h-.002z" fill="#a6ce39"/><path d="M38.044 12.719h3.683v38.356h-3.683V12.719zm34.103 38.357h-3.721V34.178v-.396c0-.257-.038-.546-.115-.856-.071-.307-.231-.599-.48-.878s-.613-.51-1.095-.703-1.134-.289-1.946-.289c-.824 0-1.485.1-1.998.289s-.906.414-1.187.682c-.273.261-.46.546-.543.856-.089.307-.137.581-.137.81v.485 16.898h-3.723V34.178v-.396c0-.257-.037-.546-.112-.856-.068-.307-.235-.599-.477-.878-.253-.279-.62-.51-1.1-.703s-1.129-.289-1.949-.289-1.483.1-1.997.289c-.509.193-.903.414-1.184.682-.273.261-.457.546-.548.856s-.128.581-.128.81v.485 16.898h-3.68V33.878v-.799c0-.35.054-.82.172-1.406s.425-1.17.919-1.759c.501-.589 1.248-1.091 2.238-1.52s2.369-.632 4.122-.632c1.398 0 2.548.139 3.438.414s1.613.624 2.17 1.035c.557-.411 1.279-.756 2.169-1.035s2.039-.414 3.444-.414c1.755 0 3.124.207 4.119.632s1.737.931 2.236 1.52.804 1.185.921 1.78c.117.602.174 1.063.174 1.384v.446 17.551h-.001z" fill="#523929"/><path d="M106.122 34.138v-.446c0-.289-.061-.592-.175-.895-.117-.31-.32-.599-.615-.86s-.679-.478-1.159-.639-1.095-.243-1.82-.243c-1.466 0-2.45.303-2.962.903s-.761 1.323-.761 2.18v10.687c0 1.117.26 1.941.783 2.49.526.538 1.508.81 2.941.81 1.46 0 2.453-.285 2.978-.853.527-.581.79-1.395.79-2.447h3.679v1.277c0 .525-.092 1.106-.281 1.737s-.562 1.209-1.12 1.734-1.312.97-2.279 1.32c-.964.357-2.222.532-3.768.532s-2.806-.175-3.776-.532c-.957-.35-1.717-.792-2.275-1.32-.551-.525-.924-1.106-1.12-1.734-.189-.632-.284-1.213-.284-1.737v-2.069-9.896-1.059c0-.731.142-1.419.419-2.061.278-.649.718-1.206 1.34-1.698.612-.482 1.386-.863 2.318-1.142s2.059-.414 3.378-.414c2.598 0 4.49.5 5.677 1.516 1.181 1.006 1.77 2.279 1.77 3.799v1.059h-3.677zM129 45.396v.706c0 .353-.061.82-.174 1.406s-.42 1.17-.918 1.758-1.245 1.095-2.24 1.52c-.992.417-2.364.639-4.117.639s-3.125-.221-4.117-.639c-.999-.424-1.749-.931-2.24-1.52-.498-.589-.803-1.18-.921-1.784s-.177-1.063-.177-1.381v-.482-12.541c0-.321.06-.782.177-1.384.118-.596.423-1.192.921-1.78.491-.589 1.241-1.091 2.24-1.52.992-.424 2.364-.632 4.117-.632s3.125.207 4.117.632 1.742.931 2.24 1.52.8 1.173.918 1.759.174 1.056.174 1.406v12.317zm-3.722-.442v-10.73-.482c0-.264-.043-.553-.132-.86s-.273-.596-.547-.856c-.278-.268-.665-.489-1.163-.682s-1.166-.289-2.02-.289c-.786 0-1.419.1-1.898.289-.487.193-.857.424-1.12.703s-.434.574-.508.896a3.78 3.78 0 0 0-.107.838v.442 10.73.442a3.65 3.65 0 0 0 .107.831c.074.328.242.632.508.906s.633.517 1.12.706c.48.189 1.113.285 1.898.285.854 0 1.522-.096 2.02-.285s.885-.424 1.163-.685.458-.549.547-.856a3.1 3.1 0 0 0 .132-.856v-.489z" fill="#a6ce39"/></svg>
